X:86
T: Raca
O:rumania
M: C
L: 1/8
Z: 1998 by John Chambers <jc@eddie.mit.edu> http://eddie.mit.edu/~jc/music/
N: For chords, play tonic throughout.  Best with just melody and drums.
K: DLydian
P: D lydian
|: GB A2 G2 F2 | G2 A2 G2 F2 | GB A2 G2 F2 | MD2 MD2 MD4 :| \
|: DF AF BF AF | DF AF BF AF | DF AF BF AF | MD2 MD2 MD4 :|
P: G lydian
K: GLydian
|: ce d2 c2 B2 | c2 d2 c2 B2 | ce d2 c2 B2 | MG2 MG2 MG4 :| \
|: GB dB eB dB | GB dB eB dB | GB dB eB dB | MG2 MG2 MG4 :|
%%sep 5 5 200
P: D with high harmony
K: DLydian
|: [GB][Bd] [A2=c2] [G2B2] [F2A2] | [G2B2] [A2=c2] [G2B2] [F2A2] | [GB][Bd] [A2=c2] [G2B2] [F2A2] | M[D2F2] M[D2F2] M[D4F4] :| \
|: [DF][FA] [Ad][FA] [Be][FA] [Ad][FA] | [DF][FA] [Ad][FA] [Be][FA] [Ad][FA] | [DF][FA] [Ad][FA] [Be][FA] [Ad][FA] | M[D2F2] M[D2F2] M[D4F4] :|
P: G with high harmony
K: GLydian
|: [ce][eg] [d2=f2] [c2e2] [B2d2] | [c2e2] [d2=f2] [c2e2] [B2d2] | [ce][eg] [d2=f2] [c2e2] [B2d2] | M[G2B2] M[G2B2] M[G4B4] :| \
|: [GB][Bd] [dg][Bd] [ea][Bd] [dg][Bd] | [GB][Bd] [dg][Bd] [ea][Bd] [dg][Bd] | [GB][Bd] [dg][Bd] [ea][Bd] [dg][Bd] | M[G2B2] M[G2B2] M[G4B4] :|
%%sep 5 5 200
P: D with low harmony
K: DLydian
|: [G^E][BG] [A2F2] [G2E2] [F2D2] | [G2^E2] [A2F2] [G2E2] [F2D2] | [G^E][BG] [A2F2] [G2E2] [F2D2] | M[D2A,2] M[D2A,2] M[D4A,4] :| \
K: DLydian
|: [DA,][FD] [AF][FD] [B=G][FD] [AF][FD] | [DA,][FD] [AF][FD] [B=G][FD] [AF][FD] | [DA,][FD] [AF][FD] [B=G][FD] [AF][FD] | M[D2A,2] M[D2A,2] M[D4A,4] :|
P: G with low harmony
K: GLydian
|: [c^A][ec] [d2B2] [c2A2] [B2G2] | [c2^A2] [d2B2] [c2A2] [B2G2] | [c^A][ec] [d2B2] [c2A2] [B2G2] | M[G2D2] M[G2D2] M[G4D4] :| \
|: [GD][BG] [dB][BG] [e=c][BG] [dB][BG] | [GD][BG] [dB][BG] [e=c][BG] [dB][BG] | [GD][BG] [dB][BG] [e=c][BG] [dB][BG] | M[G2D2] M[G2D2] M[G4D4] :|
